X: 39588
T: Teelin, The
R: reel
M: 4/4
K: Amixolydian
|:AG|(3Bcd eg fdeA|(3Bcd ef gfgA|(3Bcd eg fdea|gedB (3ABA:|
A^g|a2 ea fded|cABA c<ee^g|a2 ea f<dea|gedB A2 A^g|
a2 ea f<ae<a|cABA c<ee^g|a2 eg fefa|gedB A2||

